dist/svgs/crypto-icons/icons/vpn.svg

<?xml version="1.0" encoding="UTF-8" standalone="yes"?>
<svg xmlns="http://www.w3.org/2000/svg" xmlns:xlink="http://www.w3.org/1999/xlink" width="512px" height="512px" viewBox="0 0 384 384" version="1.1">
  <g id="surface1">
    <path style=" stroke:none;fill-rule:nonzero;fill:rgb(0%,0%,0%);fill-opacity:1;" d="M 0.277344 175.707031 L 73.726562 175.707031 L 153.648438 255.628906 L 153.648438 175.707031 L 211.117188 175.707031 L 211.117188 336.320312 L 156.3125 336.320312 Z M 232.90625 102.734375 L 232.90625 143.546875 L 307.316406 143.546875 C 328.34375 143.546875 335.570312 156.101562 335.570312 168.382812 C 335.570312 180.660156 327.203125 193.5 305.695312 193.5 L 232.90625 193.5 L 232.90625 244.308594 L 321.109375 244.308594 C 354.601562 244.308594 383.621094 221.472656 383.621094 169.238281 C 383.621094 117 344.324219 102.734375 321.109375 102.734375 Z M 232.90625 102.734375 "/>
    <path style=" stroke:none;fill-rule:nonzero;fill:rgb(0%,0%,0%);fill-opacity:1;" d="M 292.058594 292.644531 C 310.921875 299.503906 322.253906 308.277344 322.253906 317.855469 C 322.253906 339.824219 262.613281 357.625 189.046875 357.625 C 115.476562 357.625 55.839844 339.824219 55.839844 317.855469 C 55.839844 308.277344 67.167969 299.503906 86.027344 292.644531 C 52.410156 301.644531 31.101562 314.96875 31.101562 329.84375 C 31.101562 356.957031 101.8125 378.9375 189.046875 378.9375 C 276.277344 378.9375 346.992188 356.957031 346.992188 329.84375 C 346.992188 314.96875 325.675781 301.644531 292.058594 292.644531 Z M 143.945312 136.671875 C 143.945312 137.359375 143.675781 138.019531 143.191406 138.503906 C 142.703125 138.992188 142.046875 139.265625 141.359375 139.265625 L 108.289062 139.265625 C 106.855469 139.265625 105.695312 138.105469 105.695312 136.671875 L 105.695312 103.609375 C 105.695312 102.179688 106.855469 101.015625 108.289062 101.015625 L 141.359375 101.015625 C 142.785156 101.015625 143.945312 102.179688 143.945312 103.609375 Z M 210.929688 152.632812 C 210.933594 154.707031 209.257812 156.390625 207.183594 156.394531 L 159.304688 156.394531 C 157.230469 156.390625 155.550781 154.707031 155.554688 152.632812 L 155.554688 104.765625 C 155.554688 102.695312 157.230469 101.015625 159.304688 101.015625 L 207.183594 101.015625 C 209.253906 101.015625 210.929688 102.695312 210.929688 104.765625 Z M 190.808594 86.496094 C 190.808594 87.8125 189.738281 88.886719 188.421875 88.886719 L 157.941406 88.886719 C 156.621094 88.886719 155.554688 87.816406 155.554688 86.496094 L 155.554688 56.019531 C 155.554688 54.699219 156.621094 53.632812 157.941406 53.632812 L 188.421875 53.632812 C 189.738281 53.632812 190.808594 54.699219 190.808594 56.019531 Z M 140.949219 86.496094 C 140.949219 87.8125 139.878906 88.886719 138.566406 88.886719 L 108.082031 88.886719 C 106.765625 88.882812 105.695312 87.8125 105.695312 86.496094 L 105.695312 56.019531 C 105.695312 54.699219 106.765625 53.632812 108.082031 53.632812 L 138.566406 53.632812 C 139.882812 53.632812 140.949219 54.703125 140.949219 56.019531 Z M 132.386719 44.972656 C 132.386719 45.972656 131.574219 46.78125 130.582031 46.78125 L 107.503906 46.78125 C 106.507812 46.78125 105.699219 45.972656 105.699219 44.972656 L 105.699219 21.902344 C 105.699219 20.902344 106.507812 20.09375 107.503906 20.09375 L 130.582031 20.09375 C 131.578125 20.097656 132.386719 20.90625 132.386719 21.902344 Z M 96.46875 79.710938 C 96.46875 80.761719 95.621094 81.609375 94.570312 81.609375 L 70.390625 81.609375 C 69.886719 81.609375 69.40625 81.410156 69.050781 81.054688 C 68.695312 80.695312 68.496094 80.214844 68.496094 79.710938 L 68.496094 55.523438 C 68.496094 54.484375 69.339844 53.636719 70.390625 53.636719 L 94.570312 53.636719 C 95.621094 53.636719 96.46875 54.484375 96.46875 55.523438 Z M 86.761719 41.835938 C 86.765625 42.164062 86.632812 42.476562 86.402344 42.710938 C 86.171875 42.945312 85.855469 43.074219 85.527344 43.074219 L 69.730469 43.074219 C 69.046875 43.074219 68.492188 42.519531 68.496094 41.835938 L 68.496094 26.039062 C 68.496094 25.714844 68.625 25.398438 68.855469 25.167969 C 69.089844 24.933594 69.402344 24.804688 69.730469 24.804688 L 85.527344 24.804688 C 86.210938 24.804688 86.761719 25.359375 86.761719 26.039062 Z M 60.503906 21.710938 C 60.503906 22.039062 60.375 22.351562 60.140625 22.585938 C 59.910156 22.816406 59.597656 22.949219 59.269531 22.949219 L 43.46875 22.949219 C 43.140625 22.949219 42.828125 22.816406 42.59375 22.585938 C 42.363281 22.351562 42.234375 22.039062 42.234375 21.710938 L 42.234375 5.917969 C 42.234375 5.234375 42.785156 4.683594 43.46875 4.683594 L 59.269531 4.683594 C 59.953125 4.683594 60.503906 5.234375 60.503906 5.917969 Z M 60.503906 21.710938 "/>
  </g>
</svg>

<svg xmlns="http://www.w3.org/2000/svg" viewBox="0 0 384 384"><path d="M.277 175.707h73.45l79.921 79.922v-79.922h57.47V336.32h-54.805zm232.63-72.973v40.813h74.41c21.027 0 28.253 12.555 28.253 24.836 0 12.277-8.367 25.117-29.875 25.117h-72.789v50.809h88.203c33.493 0 62.512-22.836 62.512-75.07 0-52.239-39.297-66.505-62.512-66.505zm0 0"/><path d="M292.059 292.645c18.863 6.859 30.195 15.632 30.195 25.21 0 21.97-59.64 39.77-133.207 39.77-73.57 0-133.207-17.8-133.207-39.77 0-9.578 11.328-18.351 30.187-25.21-33.617 9-54.925 22.324-54.925 37.199 0 27.113 70.71 49.094 157.945 49.094 87.23 0 157.945-21.981 157.945-49.094 0-14.875-21.316-28.2-54.933-37.2zM143.945 136.672a2.59 2.59 0 01-2.586 2.594h-33.07a2.592 2.592 0 01-2.594-2.594v-33.063c0-1.43 1.16-2.593 2.594-2.593h33.07a2.593 2.593 0 012.586 2.593zm66.985 15.96a3.753 3.753 0 01-3.746 3.763h-47.88a3.756 3.756 0 01-3.75-3.762v-47.867c0-2.07 1.676-3.75 3.75-3.75h47.88c2.07 0 3.746 1.68 3.746 3.75zm-20.121-66.136c0 1.317-1.07 2.39-2.387 2.39h-30.48a2.387 2.387 0 01-2.387-2.39V56.02a2.384 2.384 0 012.386-2.387h30.48a2.386 2.386 0 012.388 2.387zm-49.86 0a2.39 2.39 0 01-2.383 2.39h-30.484a2.395 2.395 0 01-2.387-2.39V56.02c0-1.32 1.07-2.387 2.387-2.387h30.484a2.386 2.386 0 012.383 2.387zm-8.562-41.523c0 1-.813 1.808-1.805 1.808h-23.078a1.806 1.806 0 01-1.805-1.808v-23.07c0-1 .809-1.81 1.805-1.81h23.078a1.811 1.811 0 011.805 1.81zM96.469 79.71c0 1.05-.848 1.898-1.899 1.898H70.39a1.892 1.892 0 01-1.894-1.898V55.523a1.89 1.89 0 011.895-1.886h24.18c1.05 0 1.898.847 1.898 1.886zm-9.707-37.875a1.232 1.232 0 01-1.235 1.238H69.73a1.233 1.233 0 01-1.234-1.238V26.039a1.236 1.236 0 011.234-1.234h15.797c.684 0 1.235.554 1.235 1.234zM60.504 21.71a1.235 1.235 0 01-1.234 1.238H43.469a1.25 1.25 0 01-.875-.363 1.245 1.245 0 01-.36-.875V5.918c0-.684.551-1.234 1.235-1.234h15.8c.684 0 1.235.55 1.235 1.234zm0 0"/></svg>
